symbols/web/gif_box/materialsymbolsoutlined/gif_box_gradN25_48px.svg

<svg xmlns="http://www.w3.org/2000/svg" height="48" width="48"><path d="M16.45 27.9h3.2q.55 0 .925-.4t.375-.95v-2H19.6v2h-3.15V21.4h4.4q0-.55-.375-.95-.375-.4-.875-.4h-3.15q-.6 0-.975.4t-.375.95v5.15q0 .6.375.975t.975.375Zm6.9 0h1.35v-7.85h-1.35Zm3.75 0h1.35v-3h3.5v-1.35h-3.5V21.4h4.5v-1.35H27.1Zm-18 13.85q-1.15 0-2-.85-.85-.85-.85-2V9.1q0-1.15.85-2.025t2-.875h29.8q1.15 0 2.025.875T41.8 9.1v29.8q0 1.15-.875 2-.875.85-2.025.85Zm0-2.85h29.8V9.1H9.1v29.8Zm0-29.8v29.8V9.1Z"/></svg>

<svg xmlns="http://www.w3.org/2000/svg" height="48" width="48"><path d="M16.45 27.9H19.65Q20.2 27.9 20.575 27.5Q20.95 27.1 20.95 26.55V24.55H19.6V26.55Q19.6 26.55 19.6 26.55Q19.6 26.55 19.6 26.55H16.45Q16.45 26.55 16.45 26.55Q16.45 26.55 16.45 26.55V21.4Q16.45 21.4 16.45 21.4Q16.45 21.4 16.45 21.4H20.85Q20.85 20.85 20.475 20.45Q20.1 20.05 19.6 20.05H16.45Q15.85 20.05 15.475 20.45Q15.1 20.85 15.1 21.4V26.55Q15.1 27.15 15.475 27.525Q15.85 27.9 16.45 27.9ZM23.35 27.9H24.7V20.05H23.35ZM27.1 27.9H28.45V24.9H31.95V23.55H28.45V21.4H32.95V20.05H27.1ZM9.1 41.75Q7.95 41.75 7.1 40.9Q6.25 40.05 6.25 38.9V9.1Q6.25 7.95 7.1 7.075Q7.95 6.2 9.1 6.2H38.9Q40.05 6.2 40.925 7.075Q41.8 7.95 41.8 9.1V38.9Q41.8 40.05 40.925 40.9Q40.05 41.75 38.9 41.75ZM9.1 38.9H38.9Q38.9 38.9 38.9 38.9Q38.9 38.9 38.9 38.9V9.1Q38.9 9.1 38.9 9.1Q38.9 9.1 38.9 9.1H9.1Q9.1 9.1 9.1 9.1Q9.1 9.1 9.1 9.1V38.9Q9.1 38.9 9.1 38.9Q9.1 38.9 9.1 38.9ZM9.1 9.1Q9.1 9.1 9.1 9.1Q9.1 9.1 9.1 9.1V38.9Q9.1 38.9 9.1 38.9Q9.1 38.9 9.1 38.9Q9.1 38.9 9.1 38.9Q9.1 38.9 9.1 38.9V9.1Q9.1 9.1 9.1 9.1Q9.1 9.1 9.1 9.1Z"/></svg>
